X:1
T:James Gibb editions
T:The Message to the Shepherds - Barnby
T:#
%%score [ ( 1 2 ) ( 3 4 ) ] { ( 5 6 ) | ( 7 8 ) }
L:1/8
Q:1/4=70
M:6/8
K:D
V:1 treble nm="Midi_74"
V:2 treble 
V:3 bass nm="Midi_74"
V:4 bass 
V:5 treble nm="Midi_20"
V:6 treble 
V:7 bass 
V:8 bass 
V:1
"^The Message to the Shepherds""^Joseph Barnby\n(1838-96)""^Angela Goetze" z3 | z6 | z3 z2!mf! A | %3
w: ||Be-|
 A2 A B2 B | AFA B2 B | d2 B A2 F | A3- A2"^cresc." A | A2 A A2 A | A2 A A3 | A^GF c2 G | %10
w: side their flocks the|shep\- * herds watched That|ho- ly Cbrist- mas|||||
 A3!f! c3- | cBA e2 B | c3- c2 z | eAe d2 d | cEc B2 B | AEG F2 E | A3 A2 A | =cB"^cresc."A B2 B | %18
w: sight, shone|* on * * *||||tid\- * ings do I|bring, * In|Beth\- * le- ~hem, a|
 dcB c2 c | e2 e d2 c | d3!f!"^1" d3 | fc^A c^GA | F3- F2 F | G2 G GFE | B2 ^A A2 F | B2 B c2 F | %26
w: new\- * born babe, Lies|Christ, your heaven- ly|King, lies|Christ, * your heaven\- * ly|King. * And|this shall be * a|guid- ing sign To|you and na- tions|
"^dim." d3- d2 d | (c^G)B A2 A | (BF)A G3 |"^dim." GGG G2 G | G3- G3 | %31
w: all, * The|Ho\- * ly Babe you|there * shall find,|Laid in a hum- ble|stall, *|
"^rall."[Q:1/4=69] G[Q:1/4=67]G[Q:1/4=65]G[Q:1/4=63] G2[Q:1/4=60] G |[Q:1/4=60] G3 z3 | %33
w: laid in a hum- ble|stall,"|
"^a tempo" z3 z2!f![Q:1/4=70] A | A2 A B2 B | AFA B2 B | d2 B A2 F | A3- A2 A | d2 d cdc | %39
w: And|sud- den- ly the|hosts * of heav'n Shone|on their won- d'ring|eyes, * And|raised a song * of|
 B2 B A2 A- | G2 F E2 D | !>!=A3 !>!B3 | !>!c3 d3 | !>!B6 | c6 | d6- | d3 d2!mf! D | D2 D E2 E | %48
w: ho- ly praise That|e- choed thro' the|skies, that|e- choed|thro'|the|skies.|* * Then|mar- velled all the|
 G2 G F3 |"^cresc. e rall."[Q:1/4=69] A[Q:1/4=68]A[Q:1/4=67]A[Q:1/4=65] G2[Q:1/4=63] _B | %50
w: shep- herds sore,|What was this won- drous|
[Q:1/4=61] A3-[Q:1/4=60] !fermata!A2[Q:1/4=70]"^a tempo" z | z6 | z3 z2!f! A | _B2 =c d2 c | %54
w: thing? *||~to|Beth- le- hem they|
 _B2 =c d2 d |!ff! d6 | d3 d2 F | !>!B3 !>!A3 | !>!F3 G3 | A3 B3 | D6 | E6 | D6- | D3 D2 z |] %64
w: took their way, And|there,|there * they|found their|King, and|there they|found|their|King.||
V:2
 x2 x | x4 x2 | z3 z2 A | F2 F F2 F | F2 F F2 F | F2 F F2 D | E3- E2 E | ^D2 D E2 G | F2 F F3 | %9
w: ||||||night, * When|lo! the an- gel|of the Lord|
 CCF ^E2 E | (F2 C) ^D3 | E2 A ^G2 G | A3- A2 z | AAA A2 A | E2 E E2 E | E2 D C2 C | D3- D2 A | %17
w: Shone on their daz- zled|shone * on|on their daz- zled|sight. *|"Fear not," he cried, "of|joy\_ and peace Glad|||
 F2 F G2 G | ^G2 G A2 A | ^A2 A A2 A | B3 F3 | F2 F ^E2 E | F3- F2 F | G2 G GFE | B2 ^A A2 F | %25
w: ||||||||
 F2 D G2 F | F3- F2 F | ^E2 E F2 F | F2 F E3 | EEE E2 E | E3- E3 | EEE E2 E | E3 z3 | z3 z2 A | %34
w: |||||||||
 A2 A B2 B | AFA B2 B | d2 B A2 F | A3- A2 A | d2 d cdc | B2 B A2 A | G2 F E2 D | =A3 B3 | c3 d3 | %43
w: |||||||||
 B6 | E6- | F6- | F3 F2 D | D2 D E2 E | G2 G F3 | AAA G2 _B | A3- A2 z | x4 x2 | x3 x2 D | %53
w: ||||||||||
 G2 A _B2 A | G2 A _B2 d | d6 | d3- d2 F | B3 A3 | F3 D3 | D3 D3 | A,6 | C6 | D6- | D3 D2 x |] %64
w: |||||||||||
V:3
 z3 | z6 | z3 z2!mf! A, | A,2 A, B,2 B, | A,F,A, B,2 B, | A,2 B, D2 D | C3- C2 C | =C2 C ^C2 C | %8
w: ||||||||
 D2 A, (A,2 B,) | CB,A, ^G,2 C | C3!f! (A,2 F,) | A,2 C B,2 D | C3 C2 z | CCC D2 D | %14
w: ||||||
 E2 E, ^G,2 G, | A,2 B, C2 A, | A,3- A,2 A, | A,B,=C B,2 B, | B,CD C2 C | C2 C D2 E | D3!f! ^G,3 | %21
w: |||||||
 ^A,2 C B,2 B, | ^A,3- A,2 F, | G,2 G, G,F,E, | B,2 ^A, A,2 F, | B,2 B, B,2 ^A, | B,3- B,2 B, | %27
w: ||||||
 B,2 C C2 C | B,2 B, B,3 | A,A,A, D2 D | (C3 B,3) | A,A,A, D2 D | C3 z3 | z3 z2!f! A, | %34
w: |||||||
 A,2 A, B,2 B, | A,F,A, B,2 B, | D2 B, A,2 F, | A,3- A,2 A, | D2 D CDC | B,2 B, A,2 A, | %40
w: ||||||
 G,2 F, E,2 D, | =A,3 B,3 | C3 D3 | !>!B,6 | A,6 | A,6- | A,3 A,2!mf! D, | D,2 D, E,2 E, | %48
w: ||||||||
 G,2 G, F,3 | A,A,A, G,2 _B, | A,3- A,2!f! D, | G,2 A, _B,2 A, | G,2 A, _B,2 A, | _B,2 =C D2 C | %54
w: ||* * To|Beth- le- hem they|took their way, *||
 _B,2 =C D2 D |!ff! D6 | D3- D2 F, | B,3 A,3 | F,3 G,3 | F,3 E,3 | F,6 | G,6 | F,6- | F,3 F,2 z |] %64
w: ||||||||||
V:4
 x2 x | x4 x2 | z3 z2 A, | D,2 D, D,2 D, | D,2 D, D,2 D, | D,2 D, D,2 A, | G,3- G,2 G, | %7
w: ||||||* * When|
 F,2 F, G,>E,C,/A,,/ | D,3- D,3 | C,C,C, C,2 C, | F,3 F,3 | E,2 E, E,2 E, | A,3- A,2 z | %13
w: lo! the an- gel of the|Lord, *|||||
 G,G,G, F,2 F, | E,2 E, D,2 D, | C,2 B,, A,,2 G, | F,3- F,2 A, | D,2 D, G,2 G, | E,2 E, A,2 A, | %19
w: ||||||
 F,2 F, F,2 F, | B,3 B,,3 | C,2 C, C,2 C, | F,3- F,2 F, | G,2 G, G,F,E, | B,2 ^A, A,2 F, | %25
w: ||||||
 D,2 G, E,2 F, | B,3- B,2 B, | ^G,2 C, F,2 F, | ^D,2 B,, (E,2 !courtesy!^D,) | C,C,C, B,,2 B,, | %30
w: |||||
 (A,,3- D,3) | C,C,C, B,,2 B,, | A,,3 z3 | z3 z2 A, | z2 A, B,2 B, | A,F,A, B,2 B, | %36
w: ||||||
 (D2 B,) A,2 F, | A,3- A,2 A, | D2 D CDC | B,2 B, A,2 A, | G,2 F, E,2 D, | !>!=A,3 !>!B,3 | %42
w: ||||||
 !>!C3 D3 | B,6 | A,6 | D,6- | D,3 D,2 D, | D,2 (D, E,2 E, | G,2 G, F,3) | A,A,A, G,2 _B, | %50
w: ||||||||
 A,3- !fermata!A,2 D, | _B,,2 D, G,2 D, | _B,,2 D, G,2 D, | G,2 A, _B,2 A, | G,2 A, _B,2 D | D6 | %56
w: ||||||
 D3- D2 F, | !>!B,3 !>!A,3 | !>!F,3 B,,3 | A,,3 ^G,,3 | A,,6 | A,,6 | D,6- | D,3 D,2 z |] %64
w: ||||||||
V:5
"^larghetto"!mp! A3- | A6 | [DA]3- [CA]2!mf! A | [FA]2 [FA] [FB]2 [FB] | AF[FA] [FB]2 [FB] | %5
 [Fd]2 [FB] [FA]2 [DF] | [CEA]3- [CEA]2 [CEA] | [=C^DA]2 [CDA] [^CEA]2 [CGA] | %8
 [DFA]2 [A,FA] [FA]3 | A^GF [^Ec]2 [EG] | A3 c3- | cBA [^Ge]2 [GB] | [Ac]3- [Ac]2 z | %13
 ([CEA]3 [DA]3 | [CEA]3) [B,E]3- | [EA]2 ([B,DG] [CF]2 [CE] | [DA]3-) [DA]2 A | (=cBA) [GB]2 [GB] | %18
 (dcB) [Ac]2 [Ac] | e2 e d2 c | [Bd]3!f! !>![FBd]3 | !>![F^Ac]3 !>![^E^Gc]3 | !>!F3- F2 (F | %23
 G2 G GFE | B2 ^A A2) F | [FB]2 [DB] [Gc]2 F | [Fd]3- [Fd]2 [Fd] | (c^GB [FA]2) [FA] | %28
 (BFA [EG]3) |"^dtflL" [EG]3 [DEG]3 | [CEG]3- [B,EG]3 |"^rall." ([A,EG]3 [DEG]2 z | %32
"^cresc." [CEG]3) !>![Aa]3 | !>![Aa]3!f! !>![Aa]3 | [Adfa]3 [Bdfb]3 | [Af]3 [Bdfb]3 | %36
 [Adfa]2 [Bdfb] [dad']2 [faf'] | [eae']3- [eae']3 | ([dd']3 [cfc']3 | [Bdb]3 [A=ca]3) | %40
 [GBg]2 [FAf] [Ge]2 [=Fd] | [^FA^f]3 !>![=F^G=f]3 | !>![E=Ge]3 [D^Fd]3 | [=F^Gd]6 | [E=Ge]6 | %45
 [D^Fd]6- | [DFd]3 [DFd]2!mf! E | [A,D]3 [_B,DE]3 | [G,DG]3 [A,DF]3 | [DA]3- [DG]2 [C_B] | %50
 [DA]3- !fermata![DA]2 D | [_B,G]2 [DA] [G_B]2 [DA] | [_B,G]2 [DA] [G_B]2 [DA] | %53
 [G_B]2 [A=c] [Bd]2 [Ac] | [G_B]2 [A=c] [Bd]2!ff! [Dd] | d3- dcB | A3- AGF | [DEB]3 [CGA]3 | %58
 [DF]3 [DG]3 | [DA]3 [DB]3 | [A,D]6 | [A,B,CE]6 | [F,A,D]6- | [F,A,D]3 [F,A,D]2 z |] %64
V:6
 A3 | [DG]>F[CE] [DF]>ED | x4 x2 | x4 x2 | F2 x x x2 | x4 x2 | x4 x2 | x4 x2 | x2 x A,2 B, | %9
 C2 F z z2 | F2 C .^D2 z | E2 A z z2 | z4 z2 | z4 z2 | z4 z2 | x4 x2 | x4 x x | F3 x x2 | %18
 ^G3 x x2 | ^A3- A3 | x6 | x6 | x6 | x6 | x6 | x4 x2 | x4 x2 | ^E2 E x x2 | F2 F x x2 | x4 x2 | %30
 x4 x2 | x4 x2 | x4 x2 | x4 x2 | [A,DF]3 [B,DF]3 | [A,DF]3 [B,DF]3 | %36
 [A,DF]2 [B,DF] [A,DF]2 [F,A,D] | [A,CG]3- [A,CG]3 | [B,DF]3 x x2 | x4 x2 | x6 | x6 | x6 | x6 | %44
 x6 | x6 | x6 | x6 | x6 | x6 | x4 x x | x6 | x4 x2 | x4 x2 | x4 x2 | [D=F]6 | D6 | x6 | x6 | x6 | %60
 x6 | x6 | x6 | x6 |] %64
V:7
 z2 A, | B,>A,G, A,>G,F, | E,3 E,2 A, | A,2 A, B,2 B, | A,F,A, B,2 B, | A,2 B, D2 A, | %6
 G,3- G,2"^cresc." G, | F,2 F, G,>E,C,/A,,/ | D,3- D,2 z | CB,A, ^G,2 C | C3!f! A,2 F, | %11
 A,2 C B,2 D | C3 (A,3 | G,3 F,3 | E,2) z ^G,3 | A,2 x3 A, | A,3- A,2 A, | %17
 (A,B,"^cresc."=C) B,2 B, | (B,CD) C2 C | C2 C D2 E | [B,D]3 !>![B,,^G,]3 | %21
 !>![C,^A,]3 !>![C,B,]3 | !>![F,^A,]3- [F,A,]2 F,- | G,2 G, G,F,E, | B,2 ^A, A,2 F, | %25
 [B,,B,]2 [G,B,] [E,B,]2 [F,^A,] |"^dim." B,3- B,2 B, | [^G,B,]2 [C,C] [F,C]2 [F,C] | %28
 [^D,B,]2 [B,,B,] [E,B,]2- [=D,B,] | [C,A,]3 B,,3 | A,,3 D,3 | (C,3 B,,3 | A,,3) z3 | z6 | D,6 | %35
 D,6 | D,3 D,3 | A,,6 | (B,,3 [F,^A,E]3 | [G,B,D]3 [=CF]3) | %40
 [E,B,E]2 [!courtesy!^F,=C^D] [G,B,E]2 [^G,B,] | [A,D]3 [A,B,D]3 | C3 D3 | !>![A,B,]6 | [A,C]6 | %45
 [D,A,]6- | [D,A,]3- [D,A,]2 z | [F,,,F,,]3 [G,,,G,,]3 | ([_B,,,_B,,]3 [A,,,A,,]3) | %49
"^cresc. e rall." [=C,F,]3 [_B,,G,]2 [G,,E,] | [D,F,]3- !fermata![D,F,]2!f! D, | %51
"^a tempo" [_B,,G,]2 [D,A,] [G,_B,]2 [D,A,] | [_B,,G,]2 [D,A,] [G,_B,]2 [D,A,] | %53
 [G,_B,]2 [A,=C] [B,D]2 [A,C] | [G,_B,]2 [A,=C] [B,D]2 z | [^G,,=F,!courtesy!=B,]6 | %56
 !courtesy!^F,3- F,2 A, | [A,,G,]3 [A,,E,]3 | [B,,D,]3 [B,,G,]3 | [A,,F,]3 [^G,,E,]3 | [A,,F,]6 | %61
 [A,,,A,,]6 | [D,,D,]6- | .[D,,D,]3 [D,,D,]2 z |] %64
V:8
 x2 x | A,,3- A,,3 | A,,3- A,,2 z | D,2 D, D,2 D, | D,2 D, D,2 D, | D,2 D, D,2 D, | A,,3- A,,2 x | %7
 x4 x2 | x4 x2 | C,2 C, C,2 C, | F,3 F,3 | E,2 E, E,2 E, | A,3 x3 | A,,3- A,,3 | A,,3 D,3- | %15
 (C,2 B,, A,,2 G, | F,3- F,2) x | D,3 G,2 G, | E,3 A,2 A, | F,3- F,3 | x6 | x6 | x6 | x6 | x6 | %25
 x6 | x6 | x6 | x6 | x6 | x6 | x6 | x6 | x6 | x6 | x6 | x6 | x6 | x3 F,,3 | G,,3 ^D,3 | x4 x x | %41
 x6 | A,6 | x6 | x6 | x6 | x6 | x6 | x6 | x6 | x6 | x6 | x6 | x6 | x6 | x6 | A,,6- | x6 | x6 | x6 | %60
 x6 | x6 | x6 | x6 |] %64

